X:168
T:Reel 168
M:4/4
K:Gmaj
L:1/8
dc|BGAG BGAG|DEFA Afed|B2BG DGBd|cedc BGGc|BGBG Bded|cEEG AGAc|BdBA BGBG|FEDE cAFA|Bdgd  (3Bcd gd|edcd eAA2|Bdgd Bded|cAdB GGGd|Bdgd edgd|cABG AGAG| (3DGD GF GABd|egdc BGG|
